X:814
T:Highland Wedding 
C:Joe Buchanan's Scottish Tome - Page 337.0
I:337 0
R:Strathspey
Z:Carl Allison
L:1/16
M:2/4
K:A
(eA) | "A" c2e2 A2a2 | "A" a>gf>e a2A2 | {c}c2e2 A>ae>c | "E7" {e}d>cB>A B2(e>A) |
"A" c2e2 A2a2 | "A" a>gf>e a2A2 | A>ce>c "E" B>cd>e | "A" {d}c2A2 A2 :|
(cd) | "A" c2e2 e2(cA) | "D" d2f2 f2(ed) | "A" c2e2 f>ec>A | "E7" {e}d2B2 B2(cd) |
"A" c2e2 e2(cA) | "D" d2f2 f2(ed) | "A" c>de>f "E7" B>cd>e | "A" {d}c2A2 A2 |
(eA) | "A" c2e2 A2a2 | "A" a>gf>e a2A2 | a2A2 c>de>c | "D" e>dc>B "E7" A>cd>B |
"A" c>de>c "D" d>ef1>d | "E7" e>fg>e "A" a2A2 | "A" A>ce>c "E7" B>cd>e | "A" {d}c2A2 A2 |
(ed) | "A" c>de>f e>ae>c | "D" defa f<af>d | "A" c>de>f e>ae>c | "B7" f>ed>c "E7" B>cd>B |
"A" c>de>c "D" d>ef>d | "E7" e>fg>e "A" a2A2 | "E7" A>ce>c B>cd>e | "A" {d}c2A2 A2 |]
%%newpage
T:Highland Wedding (cont)
(eA) | "A" c2e2 e2a2 | "A" c2e2 e2a2 | "A" c2e2 A>ae>c | "E7" d2B2 B2(e>A) |
"A" c2e2 e2a2 | "A" c2e2 a2e2 | "D" f>ed>c "E7" B>cd<e | "A" {d}c2A2 A2 |
(cd) | "A" e>cA>c a>cA>c | "A" e>cA>c a>cA>c | "D" f>dA>d "A" e>ca>c | "E7" d2B2 B2(c>d) |
"A" e>cA>c a>cA>c | "A" e>cA>c a>cA>c | "B7" f>ed>c "E7" B>cd>e | "A" c2A2 A2(c>d) |
"A" e>dA>c a>cA>c | "A" e>cA>e a>cA>c | "D" e>dA>c "A" a>cA>c | "E7" d2B2 B2c>d |
"A" e2Ac a2Ac | "A" f>eA>c A>cA>c | "D" fedc "E7" B>cd>e | "A" c2A2 A2 |]

